!!!COM: Mozart, Wolfgang Amadeus
!!!CDT: 1756///-1791///
!!!OTP: Viennese Sonatina No. 6 in C-major
!!!OTL: Sonatina in C-major
!!!OMV: No. 4
!!!GNM: No. 6
!!!OMD: Finale (Allegro)
!!!AIN: piano
**kern	**kern	**dynam
*staff2	*staff1	*staff1/2
*Ipiano	*Ipiano	*Ipiano
*clefF4	*clefG2	*clefG2
*>[A,A,B,B]	*>[A,A,B,B]	*>[A,A,B,B]
*>A	*>A	*>A
*k[]	*k[]	*k[]
*C:	*C:	*C:
*M3/4	*M3/4	*M3/4
*MM144	*MM144	*MM144
=1-	=1-	=1-
4c\	4e/ 4cc/	f
4G\	4e/ 4cc/	.
4E\	4e/ 4cc/	.
=2	=2	=2
4C/	4.e/ 4.cc/	.
4c\	.	.
.	8g'\ 8ee'\L	.
4r	8g'\ 8ee'\	.
.	8g'\ 8ee'\J	.
=3	=3	=3
8C'\L	4.g\ 4.ee\	.
8c'\J	.	.
8C'/	.	.
8r	8ee'\ 8gg'\L	.
4r	8ee'\ 8gg'\	.
.	8ee'\ 8gg'\J	.
=4	=4	=4
8C'\L	4ee\ 4gg\	.
8c'\J	.	.
8C'/	8r	.
8r	8ee'\ 8gg'\L	p
4r	8aa'\ 8ccc'\	.
.	8gg'\ 8bb'\J	.
=5	=5	=5
2.r	8ff'\ 8aa'\L	<
.	8ee'\ 8gg'\	.
.	8dd'\ 8ff'\	.
.	8cc'\ 8ee'\	.
.	8b'\ 8dd'\	.
.	8cc'\ 8ee'\J	.
=6	=6	=6
8F'\	8cc'\ 8ff'\ 8aa'\	f
8r	8r	.
8C'/	8cc'\ 8ee'\ 8gg'\	.
8r	8r	.
4r	4r	.
*clefG2	*	*
=7	=7	=7
4f#/	2.cc\ (2.dd\	p
4g/	.	.
4a-/	.	.
=8	=8	=8
*	*^	*
4g/	4dd/	2b\	.
4fn/	4aa/	.	.
&(4e/&)	4gg/	4cc\	.
*	*v	*v	*
=9	=9	=9
4f/	8ee\ 8gg\L	>
.	8dd\ 8ff\J	.
4g/	4cc\ 4ee\	.
4G/	4b\ 4dd\	.
=10	=10	=10
*	*^	*
4g/	4.dd/	2b\	.
4G/	.	.	.
.	8dd#/	.	.
&(8c/&)	8ee/)	8cc\	.
8r	8r	8r	.
*clefF4	*v	*v	*
=11	=11	=11
(4F#\	4cc'\ (4ddn'\	<
4G\	4cc'\ 4dd'\	.
4A-\	4cc'\ 4dd'\)	.
=12	=12	=12
4G\	4b'\ 4dd'\	.
4G#\	4ff\ 4bb\	.
4An\	4ee\ &(4ccc\&)	.
=13	=13	=13
4Fn\	8dd\ 8aa\L	>
.	8ff\J	.
4Gn\	4cc\ 4ee\	.
4GG/)	4b\ 4dd\	.
=14	=14	=14
8C\ (8E\L	4cc\	mf
8G\	.	.
8C\ 8E\	8r	.
8G\	8gg'\L	.
8C\ 8E\	8gg'\	.
8G\J)	8gg'\J	.
=15	=15	=15
8C\ 8F\L	(2gg\	>
8G\	.	.
8C\ 8F\	.	.
8G\	.	.
8C\ 8F\	4b\	.
&(8G\J&)	.	.
=16	=16	=16
8C\ (8E\L	4cc\)	.
8G\	.	.
8C\ 8E\	8r	.
8G\	8gg'\L	.
8C\ 8E\	8gg'\	.
8G\J)	8gg'\J	.
=17	=17	=17
8C\ 8F\L	(2gg\	>
8G\	.	.
8C\ 8F\	.	.
8G\	.	.
8C\ 8F\	4b\	.
&(8G\J&)	.	.
=18	=18	=18
8C'/ 8E'/L	8cc'\L)	.
8GG'/	8g'\	f
8C'/	8cc'\	.
8GG'/	8g'\	.
8C'/	8cc'\	.
8D'/J	8dd'\J	.
=19	=19	=19
8E'\L	8ee'\L	.
8C'\	8cc'\	.
8E'\	8ee'\	.
8C'\	8cc'\	.
8E'\	8ee'\	.
8F#'\J	8ff#'\J	.
=20	=20	=20
8G'\L	8gg'\L	.
8B'\	8bb'\	.
8G'\	8gg'\	.
8F#'\	8ff#'\	.
8E'\	8ee'\	.
8G'\J	8gg'\J	.
=21	=21	=21
8E'/L	8ee'\L	.
8D'/	8dd'\	.
8C'/	8cc'\	.
8BB'/	8b'\	.
8AA'/	8a'\	.
8GG'/J	8g'\J	.
=22	=22	=22
8DD'/L	4dd'\	.
8D/	.	.
8C#/	4a\ (4ff#\	mf
&(8D'/&)	.	.
8BB'/	4b\ 4gg\	.
8GG'/J	.	.
=23	=23	=23
8DD'/L	4a\ 4ff#\)	.
8D/	.	.
8C#/	4a\ (4ff#\	.
&(8D'/&)	.	.
8BB'/	4b\ 4gg\	<
8GG'/J	.	.
=24	=24	=24
8DD'/L	4a\ 4ff#\)	.
8D/	.	.
8C#/	4a\ (4ff#\	.
&(8D'/&)	.	.
8BB'/	4b\ 4gg\	.
8GG'/J	.	.
=25	=25	=25
4DD'/	4a'\ 4ff#'\)	f
4D'\	4dd'\	.
4r	4r	.
=26	=26	=26
8G\L	(4dd\	p
8B\	.	.
8G\	4dd\	.
8B\	.	.
8G\	4dd\	.
&(8B\J&)	.	.
=27	=27	=27
(8F#\L	4.dd\	.
8A\	.	.
8F#\	.	.
8A\	8ee\	.
8F#\	4dd\)	.
8A\J)	.	.
=28	=28	=28
*^	*	*
8G/L	2.E\	(4gg\	<
8A/	.	.	.
8B-/	.	4gg\	.
8Bn/	.	.	.
8c/	.	4gg\	.
&(8c#/J&)	.	.	.
*v	*v	*	*
=29	=29	=29
(8D\L	2b\ 2gg\	>
8d\	.	.
8D\	.	.
8d\	.	.
8D\	4a\ 4ff#\)	.
8d\J)	.	.
=30	=30	=30
(8G#\L	(2ee\	p
8d\	.	.
8A\	.	.
8cn\	.	.
8Gn\	4aa\)	.
8c\J)	.	.
=31	=31	=31
(8F#\L	(2dd\	.
8c\	.	.
8G\	.	.
8B\	.	.
8E\	4gg\)	.
8B\J)	.	.
=32	=32	=32
8C'\L	4ee\ (4gg\	.
8c'\	.	.
8AA'\	4ff#\ 4aa\	<
8A'\	.	.
8GG'\	4gg\ 4bb\	.
8G'\J	.	.
=33	=33	=33
4D\	8ff#\ 8bb\L	>
.	8aa\	.
4r	8gg\	.
.	8ff#\	.
4r	8ee\	.
.	8dd\J)	.
=34	=34	=34
4D\	4r	.
4D\	4r	.
4D\	(8b\L	.
.	8gg\J	.
=35	=35	=35
4.D\	8a\L	.
.	8gg\	.
.	8a\	.
8E\	8ff#\	.
&(4D\&)	8a\	.
.	8ff#\J	.
=36	=36	=36
4G\	8b\L	<
.	8ff#\	.
4G\	8b\	.
.	8ee\	.
4G\	8b-\	.
.	8gg\J	.
=37	=37	=37
2G\	8a\L	>
.	8cc#\	.
.	8a\	.
.	8cc#\	.
&(4F#\&)	8a\	.
.	8dd\J)	.
=38	=38	=38
(2E\	4r	.
.	(8dd\L	<
.	8gg#\	.
4A\)	8cc#\	.
.	8aa\J)	.
=39	=39	=39
2D\	4r	.
.	(8ccn\L	.
.	8ff#\	.
&(4G\&)	8b\	.
.	8ggn\J	.
=40	=40	=40
8C'/	8cc\L	.
8r	8aa\	.
8AA'/	8ee\	.
8r	8ccc\	.
8D'\	8a\	.
8r	8ff#\J	.
=41	=41	=41
8GG/	8b\ 8gg\)	.
8r	8r	.
2B\	2g\ (2dd#\	.
=42	=42	=42
&(4c\&)	4g\ 4ee\)	.
4r	8r	.
.	(8ee\L	p
4r	8ccc\	.
.	8aa\J	.
=43	=43	=43
8D\L	2b\ 2gg\	.
8d\	.	.
8D\	.	.
8d\	.	.
8D\	4cc\ 4ff#\	.
8d\J	.	.
=44	=44	=44
&(8G'\&)	8b'\ 8gg'\)	.
8r	8r	.
2B\	2ffn\ (2gg#\	.
=45	=45	=45
&(8c'\&)	8ee'\ 8aa'\)	<
8r	8r	.
8c#'\	8gg'\ 8bb-'\	.
8r	8r	.
4r	4r	.
=46	=46	=46
4d'\	8gg'\ 8bbn'\L	p
.	8ff#'\ 8aa'\	.
4D'\	8ee'\ 8gg'\	.
.	8dd'\ 8ff#'\	.
4d'\	8cc'\ 8ee'\	.
.	8b'\ 8dd'\J	.
=47	=47	=47
4D'\	4b\ (4dd\	.
4d'\	4a\ 4cc\	.
4D'\	4f#/ 4a/	.
=48	=48	=48
8G\ 8B\L	4g/)	<
8d\	.	.
8G\ 8B\	(4.dd\	.
8d\	.	.
8G\ 8c\	.	.
&(8d\J&)	8ff#\	.
=49	=49	=49
8G\ 8B\L	4gg\)	.
8d\	.	.
8G\ 8B\	(4.dd\	.
8d\	.	.
8G\ 8c\	.	.
&(8d\J&)	8ff#\	.
=50	=50	=50
8G\ (8B\L	8gg'\L)	f
8c\	8ff#'\	.
8G\ 8B\	8gg'\	.
8c\	8ff#'\	.
8G\ 8B\	8gg'\	.
8c\J)	8ff#'\J	.
=51	=51	=51
4G'\ 4B'\	4gg'\	.
4GG'/	4g'/	.
4r	4r	.
=52:|!|:	=52:|!|:	=52:|!|:
*>B	*>B	*>B
8Fn\L	8ffn'\L	f
8E'\	8ee'\	.
8F'\	8ff'\	.
8E'\	8ee'\	.
8F'\	8ff'\	.
8E'\J	8ee'\J	.
=53	=53	=53
4F'\	4ff'\	.
4GG#'/	4g#'/	.
4r	4r	.
=54	=54	=54
8A'\L	4cc'\ (4ff'\	p
8G#'\	.	.
8A'\	4cc'\ 4ff'\	.
8G#'\	.	.
8A'\	4cc'\ 4ff'\	.
8G#'\J	.	.
=55	=55	=55
4A'\	4cc\ 4ff\	.
4AA'/	4cc\ 4aa\	.
4r	4cc\ 4ff\)	.
=56	=56	=56
8B-'\L	4cc'\ (4ee'\	.
8A'\	.	.
8B-'\	4cc'\ 4ee'\	.
8A'\	.	.
8B-'\	4cc'\ 4ee'\	.
8A'\J	.	.
=57	=57	=57
4B-'\	4cc\ 4ee\	.
4BB-'/	4cc\ 4bb-\	.
4r	4cc'\ 4ee'\)	.
=58	=58	=58
8A'\L	4cc'\ (4ff'\	.
8G#'\	.	.
8A'\	4cc'\ 4ff'\	.
8G#'\	.	.
8A'\	4cc'\ 4ff'\	.
8G#'\J	.	.
=59	=59	=59
4A'\	4cc\ 4ff\	.
4AA'/	4cc\ 4aa\	.
4r	4cc\ 4ff\)	.
=60	=60	=60
8G'\L	4cc'\ (4ee'\	.
8F#'\	.	.
8G'\	4cc'\ 4ee'\	.
8F#'\	.	.
8G'\	4cc'\ 4ee'\	.
8F#'\J	.	.
=61	=61	=61
4G'\	4cc\ 4ee\	.
4GG'/	4ee\ 4gg\	.
4r	4cc'\ 4ee'\)	.
=62	=62	=62
8F#'\L	4cc'\ 4dd'\	.
8E#'\	.	.
8F#'\	4cc'\ 4dd'\	.
8E#'\	.	.
8F#'\	4cc'\ 4dd'\	.
8E#'\J	.	.
=63	=63	=63
4F#'\	4cc'\ 4dd'\	.
4FF#'/	4cc'\ 4dd'\	.
4r	4cc'\ 4dd'\	.
=64	=64	=64
8Fn'\L	4cc'\ 4dd#'\	<
8En'\	.	.
8F'\	4cc'\ 4dd#'\	.
8E'\	.	.
8F'\	4cc'\ 4dd#'\	.
8E'\J	.	.
=65	=65	=65
*	*^	*
4F'\	(2.dd#/	8cc\L	.
.	.	8b\	.
4FF'/	.	8cc\	.
.	.	8b\	.
4r	.	8cc\	.
.	.	8a\J	.
=66	=66	=66	=66
8E'\L	8ee/)	&(8g#\&)	f
8D#'\	8r	8r	.
8E'\	4r	4cc^\ (4ee^\	.
8D#'\	.	.	.
8E'\	4r	4a\ 4cc\	.
8D#'\J	.	.	.
*	*v	*v	*
=67	=67	=67
8E'\L	8g#/ 8b/)	.
8D#'\	8r	.
8E'\	4cc^\ (4ee^\	.
8D#'\	.	.
8E'\	4a\ 4cc\	.
8D#'\J	.	.
=68	=68	=68
4E'\	4g#'/ 4b'/)	.
4e'\	4g#'/ 4b'/	.
4r	4r	.
=69	=69	=69
4e'\	4gn'/ 4b'/	p
4e'\	4g'/ 4b'/	.
4r	4r	.
=70	=70	=70
4d#'\	4f#'/ 4b'/	.
4d#'\	4f#'/ 4b'/	.
4r	4r	.
=71	=71	=71
4dn'\	4fn'/ 4b'/	pp
4d'\	4f'/ 4b'/	.
4r	4r	.
=72	=72	=72
4c\	4e/ 4cc/	f
4G\	4e/ 4cc/	.
4E\	4e/ 4cc/	.
=73	=73	=73
4C/	4.e/ 4.cc/	.
4c\	.	.
.	8g'\ 8ee'\L	.
4r	8g'\ 8ee'\	.
.	8g'\ 8ee'\J	.
=74	=74	=74
8C'\L	4.g\ 4.ee\	.
8c'\J	.	.
8C'/	.	.
8r	8ee'\ 8gg'\L	.
4r	8ee'\ 8gg'\	.
.	8ee'\ 8gg'\J	.
=75	=75	=75
8C'\L	4ee\ 4gg\	.
8c'\J	.	.
8C'/	8r	.
8r	8ee'\ 8gg'\L	p
4r	8aa'\ 8ccc'\	.
.	8gg'\ 8bb'\J	.
=76	=76	=76
2.r	8ff'\ 8aa'\L	.
.	8ee'\ 8gg'\	.
.	8dd'\ 8ff'\	.
.	8cc'\ 8ee'\	.
.	8b'\ 8dd'\	.
.	8cc'\ 8ee'\J	.
=77	=77	=77
8F'\	8cc'\ 8ff'\ 8aa'\	f
8r	8r	.
8C'/	8cc'\ 8ee'\ 8gg'\	.
8r	8r	.
4r	4r	.
*clefG2	*	*
=78	=78	=78
*	*^	*
4f#/	(2.dd/	2.cc\	p
4g/	.	.	.
4a-/	.	.	.
=79	=79	=79	=79
4g/	4dd/	2b\	.
4fn/	4aa/	.	.
&(4e/&)	4gg/	4cc\	.
*	*v	*v	*
=80	=80	=80
4f/	8ee\ 8gg\L	.
.	8dd\ 8ff\J	.
4g/	4cc\ 4ee\	.
4G/	4b\ 4dd\	.
=81	=81	=81
*	*^	*
4g/	4.dd/	2b\	.
4G/	.	.	.
.	8dd#/	.	.
&(8c/&)	8ee/)	8cc\	.
8r	8r	8r	.
*clefF4	*v	*v	*
=82	=82	=82
(4F#\	4cc\ (4ddn\	.
4G\	4cc'\ 4dd'\	.
4A-\	4cc'\ 4dd'\)	.
=83	=83	=83
4G\	4b'\ 4dd'\	.
4G#\	4ff\ 4bb\	.
4An\	4ee\ &(4ccc\&)	.
=84	=84	=84
4Fn\	8dd\ 8aa\L	.
.	8ff\J	.
4Gn\	4cc\ 4ee\	.
4GG/)	4b\ 4dd\	.
=85	=85	=85
8C\ (8E\L	&(4cc\&)	mf
8G\	.	.
8C\ 8E\	8r	.
8G\	8gg'\L	.
8C\ 8E\	8gg'\	.
8G\J)	8gg'\J	.
=86	=86	=86
8C\ 8F\L	(2gg\	.
8G\	.	.
8C\ 8F\	.	.
8G\	.	.
8C\ 8F\	4b\	>
&(8G\J&)	.	.
=87	=87	=87
8C\ (8E\L	4cc\)	.
8G\	.	.
8C\ 8E\	8r	.
8G\	8gg'\L	.
8C\ 8E\	8gg'\	.
8G\J)	8gg'\J	.
=88	=88	=88
8C\ 8F\L	(2gg\	.
8G\	.	.
8C\ 8F\	.	.
8G\	.	.
8C\ 8F\	4b\	>
&(8G\J&)	.	.
=89	=89	=89
8C'/ 8E'/L	8cc'\L)	.
8GG'/	8g'\	f
8C'/	8cc'\	.
8GG'/	8g'\	.
8C'/	8cc'\	.
8D'/J	8dd'\J	.
=90	=90	=90
8E'\L	8ee'\L	.
8C'\	8cc'\	.
8E'\	8ee'\	.
8C'\	8cc'\	.
8E'\	8ee'\	.
8F#'\J	8ff#'\J	.
=91	=91	=91
8G'\L	8gg'\L	.
(8G\	(8gg\	.
8F#\	8ff#'\	.
8G'\)	8gg'\)	.
8E'\	8ee'\	.
8C'\J	8cc'\J	.
=92	=92	=92
8GG'/L	8g'\L	.
(8G/	(8gg\	.
8F#/	8ff#\	.
8G'/)	8gg'\)	.
8E'/	8ee'\	.
8C'/J	8cc'\J	.
=93	=93	=93
8GG'/L	4g/	.
8G/	.	.
8F#/	4dd\ (4bb\	.
&(8G'/&)	.	.
8E'/	4ee\ 4ccc\	.
8C'/J	.	.
=94	=94	=94
4G'\	4dd'\ 4bb'\)	.
4GG'/	4b'\ 4gg'\	.
4r	4r	.
=95	=95	=95
4G\	4r	.
4G\	4r	.
4G\	(8cc\L	p
.	8ee\J	.
=96	=96	=96
4.G\	8cc\L	.
.	8dd\	.
.	8b\	.
8A\	8dd\	.
&(4G\&)	8b\	.
.	8gg\J	.
=97	=97	=97
4c\	8a\L	<
.	8gg\	.
4c\	8a\	.
.	8ee\	.
4c\	8a\	.
.	8aa\J	.
=98	=98	=98
2c\	8ee-\L	>
.	8ff#\	.
.	8dd\	.
.	8ff#\	.
&(4B\&)	8dd\	.
.	8gg\J)	.
=99	=99	=99
(2A\	4r	.
.	(8cc#\L	<
.	8gg\	.
4d\)	8dd\	.
.	8ff#\J)	.
=100	=100	=100
2G\	4r	.
.	(8b\L	.
.	8ffn\	.
&(4c\&)	8ccn\	.
.	8ee\J	.
=101	=101	=101
4F\	8cc\L	.
.	8aa\	.
4D\	8b\	.
.	8ff\	.
4C/	8cc\	.
.	8ee\J	.
=102	=102	=102
&(4G\&)	8b\ 8ee\L	>
.	8dd\	.
4r	8cc\	.
.	8b\	.
4r	8a\)	.
.	8g\J	.
=103	=103	=103
8c\L	(4g/	p
8e\	.	.
8c\	4g/	.
8e\	.	.
8c\	4g/	.
&(8e\J&)	.	.
=104	=104	=104
(8B\L	4.g/	.
8d\	.	.
8B\	.	.
8d\	8a/)	.
8B\	4g/	.
8d\J)	.	.
=105	=105	=105
8A\L	8cc\L	<
8c\	(8dd\	.
8A\	8ee-\	.
8c\	8een\	.
8A\	8ff\	.
8c\J	8ff#\J	.
=106	=106	=106
&(8G'\L&)	4gg\)	.
8A'\	.	.
8B'\	4r	.
8c'\	.	.
8d'\	4r	.
8e'\J	.	.
=107	=107	=107
8c#'\L	4a'\ 4gg'\	f
8A'\	.	.
8d'\	2a\ 2ffn\	.
8e'\	.	.
8f'\	.	.
8d'\J	.	.
=108	=108	=108
8B'\L	4g'\ (4ff'\	.
8G'\	.	.
8cn'\	4g'\ 4ee'\	.
8e'\	.	.
8A'\	4cc'\ 4ee'\)	.
8c'\J	.	.
=109	=109	=109
8F'/L	8a'\ 8dd'\	.
8D'/	8r	.
8G'/	8e'/ 8cc'/	.
8F#'/	8r	.
8G'/	4d'/ 4b'/	.
8GG'/J	.	.
=110	=110	=110
8C'/	8e'/ 8cc'/	.
8r	8r	.
2E\	[2c/ (2g#/	.
=111	=111	=111
&(4F\&)	4c/] 4a/)	.
4r	8r	.
.	(8aa\L	p
4r	8ff\	.
.	8dd\J	.
=112	=112	=112
8G\L	2e/ 2cc/	.
8g\	.	.
8G\	.	.
8g\	.	.
8G\	4f/ 4b/	.
8g\J	.	.
=113	=113	=113
&(8c\&)	8e/ 8cc/)	.
8r	8r	.
2E\	2g/ (2cc#/	.
=114	=114	=114
&(8F\&)	8a\ 8dd\)	p
8r	8r	.
8G'\	8b-'\ 8ee'\	.
8r	8r	.
8A'\	8cc'\ 8ff'\	.
8r	8r	.
=115	=115	=115
8c'\	8ee-'\ 8ff#'\	.
8r	8r	.
8B'\	8dd'\ 8gg'\	.
8r	8r	.
8d'\	8ffn'\ 8gg#'\	.
8r	8r	.
=116	=116	=116
8c'\	8een'\ 8aa'\	.
8r	8r	.
8F'\	8dd'\ 8bb'\	.
8r	8r	.
8F'\	8ee-'\ 8ccc'\	.
8r	8r	.
=117	=117	=117
(4FF#/	4ee-\ (4ccc\	p
4GG/)	4dd\ 4bb\)	.
4AA-'/ 4E-'/	4cc'\ 4ff#'\	.
=118	=118	=118
(8GG/L	2.gg\	.
8G/	.	.
8E/	.	.
8G/	.	.
8E/	.	.
8G/J)	.	.
=119	=119	=119
(8GG/L	2.b\	<
8G/	.	.
8F/	.	.
8G/	.	.
8F/	.	.
8G/J)	.	.
=120	=120	=120
*^	*	*
8E/L	4C\	4cc'\	f
8G/	.	.	.
8F/	2D\	(4.gg\	.
8G/	.	.	.
8F/	.	.	.
&(8G/J&)	.	8b\	.
=121	=121	=121	=121
8E/L	4C\	4cc'\)	.
8G/	.	.	.
8F/	2D\	(4.gg\	.
8G/	.	.	.
8F/	.	.	.
&(8G/J&)	.	8b\	.
*v	*v	*	*
=122	=122	=122
8C'\ 8E'\L	8cc'\L)	<
8F'\	8b'\	.
8C'\ 8E'\	8cc'\	.
8F'\	8b'\	.
8C'\ 8E'\	8cc'\	.
8F'\J	8b'\J	.
=123	=123	=123
4C\ 4E\	4cc\	ff
4CC/ 4C/	4cc\ 4ccc\	.
4r	4r	.
==:|!	==:|!	==:|!
*-	*-	*-
!!!ENC: Craig Stuart Sapp
!!!END: 2004/11/17/
